X: 28115
T: Mrs Anne MacDermott Roe
R: polka
M: 2/4
K: Dminor
DD/E/ FE/D/|FA A/G/F/E/|FE/F/ G/F/E/D/|
CA, CD/E/|FA Gc|Ad d/c/B/A/|FE/D/ F/E/D/C/|A,D D2||
Ad dA|d/c/d/e/ dA|A A/=B/ cG|c/B/c/d/ cG|
A/G/A/B/ cB/A/|GF EC|A/G/F/E/ G/F/E/D/|CC A,2|
FA F/G/A/=B/|c2 c2|fe/f/ g/f/e/d/|"tr"c2 d2|
c/d/c/B/ Ac|Gc Fc|EA G/F/E/G/|FE/D/ D2||

